assets/sonr-icons/mailbox.svg

<svg xmlns="http://www.w3.org/2000/svg" width="24" height="24" fill="none" viewBox="0 0 24 24"><path fill="#000" d="M8 12H10C10.552 12 11 11.552 11 11C11 10.448 10.552 10 10 10H8C7.448 10 7 10.448 7 11C7 11.552 7.448 12 8 12ZM17 6H12V4H13C13.552 4 14 3.552 14 3C14 2.448 13.552 2 13 2H11C10.448 2 10 2.448 10 3V6H7C4.79 6 3 7.791 3 10V16C3 16.552 3.448 17 4 17H10V21C10 21.552 10.448 22 11 22C11.552 22 12 21.552 12 21V17H20C20.552 17 21 16.552 21 16V10C21 7.79 19.209 6 17 6ZM13 10V15H5V10C5 8.895 5.895 8 7 8H13.56C13.211 8.571 13.004 9.261 13 9.999V10.001V10ZM19 15H15V10C15 8.895 15.895 8 17 8C18.105 8 19 8.895 19 10V15Z"/></svg>

<svg xmlns="http://www.w3.org/2000/svg" width="24" height="24" fill="none"><path fill="currentColor" d="M8 12h2a1 1 0 0 0 0-2H8a1 1 0 0 0 0 2m9-6h-5V4h1a1 1 0 0 0 0-2h-2a1 1 0 0 0-1 1v3H7a4 4 0 0 0-4 4v6a1 1 0 0 0 1 1h6v4a1 1 0 0 0 2 0v-4h8a1 1 0 0 0 1-1v-6a4 4 0 0 0-4-4m-4 4v5H5v-5a2 2 0 0 1 2-2h6.56A3.9 3.9 0 0 0 13 9.999zm6 5h-4v-5a2 2 0 1 1 4 0z"/></svg>
